resources/haticons/SVG/floppy-disk.svg

<!-- Generated by IcoMoon.io -->
<svg version="1.1" xmlns="http://www.w3.org/2000/svg" width="24" height="24" viewBox="0 0 24 24">
<title>floppy-disk</title>
<path d="M21 0h-21v24h24v-21l-3-3zM12 3h3v6h-3v-6zM21 21h-18v-18h1.5v7.5h13.5v-7.5h1.757l1.243 1.243v16.757z"></path>
</svg>

<svg xmlns="http://www.w3.org/2000/svg" width="24" height="24"><path d="M21 0H0v24h24V3l-3-3zm-9 3h3v6h-3V3zm9 18H3V3h1.5v7.5H18V3h1.757L21 4.243V21z"/></svg>
